!!!COM: Music21
!!!OTL: Rumba de Gulpilleira
!!!OMV: pezas_rumbas_rumba-de-gulpilleira_rumba-de-gulpilleira-partitura.musicxml
**kern
*part1
*staff1
*I"Bagpipes
*I'Bag
*clefG^2
*k[]
*M2/4
=1
!LO:TX:a:t=Andante
*MM100
!LO:TX:a:t=[quarter]=100
4.r
16ccLL
16ddJJ
=||
8eeL
16eeL
16ddJJ
8ggL
16ggL
16ffJJ
=
8eeL
16eeL
16ccJJ
8eeL
16ffL
16eeJJ
=
8ddL
16ddL
16bJJ
8.ddL
16ffJk
=
8eeL
8eeJ
8ccL
16ccL
16ddJJ
=
8eeL
16eeL
16ddJJ
8ggL
16ggL
16ffJJ
=
8eeL
16eeL
16ccJJ
8eeL
16ffL
16eeJJ
!!linebreak:original
=
8ddL
16ddL
16bJJ
8ddL
16eeL
16ddJJ
!!linebreak:original
=
4.cc
16ccLL
16ddJJ
=||
8eeL
16eeL
16ddJJ
8ggL
16ggL
16ffJJ
=
8eeL
16eeL
16ccJJ
8eeL
16ffL
16eeJJ
=
8ddL
16ddL
16bJJ
8.ddL
16ffJk
=
8eeL
8eeJ
8ccL
16ccL
16ddJJ
=
8eeL
16eeL
16ddJJ
8ggL
16ggL
16ffJJ
=
8eeL
16eeL
16ccJJ
8eeL
16ffL
16eeJJ
!!linebreak:original
=
8ddL
16ddL
16bJJ
8ddL
16eeL
16ddJJ
=
2cc
=||
8.cccL
16bbJk
16aaLL
16gg
16aa
16bbJJ
=
8.aaL
16eeJk
8ggL
8ggJ
=
8.ffL
16ddJk
8eeL
8ffJ
=
8ggL
16aaL
16ffJJ
4gg
=
8.cccL
16bbJk
16aaLL
16gg
16aa
16bbJJ
=
8.aaL
16eeJk
8ggL
8ggJ
!!linebreak:original
=
8.ffL
16eeJk
16ggLL
16ff
16ee
16ddJJ
!!linebreak:original
=
2cc
=||
8.cccL
16bbJk
16aaLL
16gg
16aa
16bbJJ
=
8.aaL
16eeJk
8ggL
8ggJ
=
8.ffL
16ddJk
8eeL
8ffJ
=
8ggL
16aaL
16ffJJ
4gg
=
8.cccL
16bbJk
16aaLL
16gg
16aa
16bbJJ
=
8.aaL
16eeJk
8ggL
8ggJ
=
8.ffL
16eeJk
16ggLL
16ff
16ee
16ddJJ
!!pagebreak:original
=||
4.cc
16ccLL
16ddJJ
=||
4.cc
==
*-
!!!system-decoration: s1,s2
